src/shared/assets/feed/icon/black_interface_edit_skull_1_Streamline_Plump.svg

<svg width="24" height="24" viewBox="0 0 24 24" fill="none" xmlns="http://www.w3.org/2000/svg">
<path fill-rule="evenodd" clip-rule="evenodd" d="M12.0001 0.75C6.13932 0.75 1.25012 5.04285 1.25012 10.5C1.25012 15.1017 4.73679 18.8834 9.33557 19.9481C9.34897 20.1892 9.36327 20.4048 9.37787 20.5972C9.46582 21.7558 10.2391 22.7431 11.4605 22.9498C11.7336 22.996 12.0509 23.0409 12.4179 23.0814C12.6298 23.1048 12.8417 23.0368 13.0005 22.8946C13.1594 22.7523 13.2501 22.5492 13.2501 22.336V21C13.2501 20.5858 13.5859 20.25 14.0001 20.25C14.4143 20.25 14.7501 20.5858 14.7501 21V22.4974C14.7501 22.9084 15.081 23.2429 15.492 23.2473C15.6568 23.2491 15.8261 23.25 16.0001 23.25C16.3588 23.25 16.6975 23.2461 17.0171 23.2388C17.4246 23.2297 17.7501 22.8967 17.7501 22.489V21C17.7501 20.5858 18.0859 20.25 18.5001 20.25C18.9143 20.25 19.2501 20.5858 19.2501 21V22.2738C19.2501 22.4908 19.3441 22.6971 19.5077 22.8396C19.6713 22.982 19.8885 23.0466 20.1034 23.0167C20.26 22.995 20.4052 22.9725 20.5397 22.9498C21.7611 22.7431 22.5344 21.7558 22.6224 20.5972C22.6894 19.7142 22.7501 18.3386 22.7501 16.25V10C22.7501 9.93015 22.7406 9.86255 22.7227 9.7984C22.3219 4.67692 17.609 0.75 12.0001 0.75ZM21.2501 11.5C21.2501 10.1235 20.3444 9.25 19.5001 9.25C18.6559 9.25 17.7501 10.1235 17.7501 11.5C17.7501 12.8765 18.6559 13.75 19.5001 13.75C20.3444 13.75 21.2501 12.8765 21.2501 11.5ZM10.7501 11.5C10.7501 10.1946 11.7057 9.25 12.7501 9.25C13.7946 9.25 14.7501 10.1946 14.7501 11.5C14.7501 12.8054 13.7946 13.75 12.7501 13.75C11.7057 13.75 10.7501 12.8054 10.7501 11.5Z" fill="black"/>
</svg>

<svg xmlns="http://www.w3.org/2000/svg" fill="none" viewBox="0 0 24 24"><path fill="#000" fill-rule="evenodd" d="M12 .75C6.14.75 1.25 5.043 1.25 10.5c0 4.602 3.487 8.383 8.086 9.448q.02.361.042.65c.088 1.158.861 2.145 2.082 2.352.274.046.59.09.958.131a.75.75 0 0 0 .832-.745V21a.75.75 0 0 1 1.5 0v1.497a.75.75 0 0 0 .742.75 47 47 0 0 0 1.525-.008.75.75 0 0 0 .733-.75V21a.75.75 0 0 1 1.5 0v1.274a.75.75 0 0 0 .853.743q.235-.033.437-.067c1.221-.207 1.994-1.194 2.082-2.353.067-.883.128-2.258.128-4.347V10q0-.105-.027-.202C22.322 4.677 17.609.75 12 .75m9.25 10.75c0-1.376-.906-2.25-1.75-2.25s-1.75.874-1.75 2.25c0 1.377.906 2.25 1.75 2.25s1.75-.873 1.75-2.25m-10.5 0c0-1.305.956-2.25 2-2.25s2 .945 2 2.25-.955 2.25-2 2.25-2-.945-2-2.25" clip-rule="evenodd"/></svg>
